X:36
T:Lansierskadril3
T:3de figuur
O:vlaanderen
C:Trad.
Z:Bart Vanhaverbeke 
P:AB x2 A
L:1/8
M:6/8
K:C
P:Voorspel
EF | "C"G>AG G>AG | c2 G "G7"d2 G | "C"e>dc "G7"GcD | "C"c2 z|]
P:A
[EC][FD] | "C"[GE]>[AF][GE] [GE]>[AF][GE] |[c2E2] [GE] [GE] [EC][FD] | "C"[GE]>[AF][GE] [GE]>[AF][GE] | "G7"[dB,][BD][dB,] [GA,] [EC][FD] |
"C"[GE]>[AF][GE] [GE]>[AF][GE] | [c2E2] [GE]  "G7"[dF2] [GB,] | "C"[eG]>[dF][cF] "G7"[GB,][cD][BF] | "C"[c2E2] [cE] [cE] |]
P:B
"C"[eG]>[dF][cE] [eG]>[dF][cE] | "G7"[d2F2] [GDB,] [G3D3B,3] | "C"[eG]>[dF][cE] [eG]>[dF][cE] | "G7"[f2D2] [dFD] [d3F3D3] |
"C" [eG]>[dF][cE] [eG]>[dF][cE] | "G7" [fd][ec][dB] H[g2B2F2] [fBG] | "C" [eG]>[dF][cE] "G7"[GFD]c[BFD] | "C" [c2E2] [cE] [cE] |]
